X: 169
T: No_2_Buffalo_Dance_Song_(b).krn
N: Derived from No_2_Buffalo_Dance_Song_(b).krn
%%abc-version 2.0
%%abcx-abcm2ps-target-version 5.9.1 (29 Sep 2008)
%%abc-creator hum2abc beta
%%abcx-conversion-date 2019/03/15 08:38:45
%%humdrum-veritas 3058539770
%%humdrum-veritas-data 2974319692
%%linebreak <none>
%%barnumbers 0
L: 1/8
M: 3/4
K: Ab clef=bass
[K:clef=bass][M:3/4]z4B,3/B,/ | 
B,3F, B,3/B,/ | 
A,F,F,2A,3/B,/ | 
A,F,F,2z2 ||  
[M:2/4]E,3C, | 
E,C, F,3/F,/ ||  
[M:3/4]F,2F,2A,3/B,/ | 
A,F,F,2z2 | 
E,3C, E,C, | 
[M:2/4]B,4 ||  
[M:3/4]B,2B,2B,2 ||  
[M:2/4]B,4 | 
B,4



